!!!COM: Music21
!!!OTL: Jota de Fonmaior
!!!OMV: pezas_jotas_jota-de-fonmaior_jota-de-fonmaior-partitura.musicxml
**kern
*I"Bagpipes
*I'Bag
*clefG^2
*k[]
*M3/4
=1
!LO:TX:a:t=Prestissimo
*MM220
!LO:TX:a:t=[quarter]=220
4gg
4aa
4bb
=||
4cc
4dd
4dd
=
4.ee
8dd
4cc
=
2.cc
=
4gg
4aa
4bb
=
4ccc
4ddd
4ddd
=
4.eee
8ddd
4ccc
=
2.bb
=
4gg
4aa
4bb
=
4cc
4dd
4dd
=
4.ee
8dd
[4cc
!!linebreak:original
=
4cc]
8ccL
8ddJ
12eeL
12dd
12ccJ
!!linebreak:original
=
4ccc
4bb
4aa
=
4gg
4ee
4gg
=
4gg
8ddL
8eeJ
12ffL
12ee
12ddJ
=
2.cc
=
4gg
4aa
4bb
=||
4cc
4dd
4dd
=
4.ee
8dd
4cc
=
2.cc
=
4gg
4aa
4bb
=
4ccc
4ddd
4ddd
=
4.eee
8ddd
4ccc
=
2.bb
!!linebreak:original
=
4gg
4aa
4bb
=
4cc
4dd
4dd
=
4.ee
8dd
[4cc
=
4cc]
8ccL
8ddJ
12eeL
12dd
12ccJ
!!linebreak:original
=
4ccc
4bb
4aa
=
4gg
4ee
4gg
=
4gg
8ddL
8eeJ
12ffL
12ee
12ddJ
=
2.cc
=
4cc
8ccL
8ddJ
12eeL
12dd
12ccJ
=||
4ccc
4bb
4aa
=
4gg
8ccL
8ddJ
8eeL
8cccJ
=
4bb
4aa
4gg
=
2ff
8eeL
8ddJ
!!linebreak:original
=
4ccc
4bb
4aa
=
4gg
4ee
4gg
=
4gg
8ddL
8eeJ
12ffL
12ee
12ddJ
=
[2.cc
=
4cc]
8ccL
8ddJ
12eeL
12dd
12ccJ
=||
4ccc
4bb
4aa
=
4gg
8ccL
8ddJ
8eeL
8cccJ
=
4bb
4aa
4gg
=
2ff
8eeL
8ddJ
!!linebreak:original
=
4ccc
4bb
4aa
=
4gg
4ee
4gg
=
4gg
8ddL
8eeJ
12ffL
12ee
12ddJ
=
2.cc
=
4gg
4aa
4bb
==
*-
